storage/app/icons/phosphoricons/light/slideshow-light.svg

<svg xmlns="http://www.w3.org/2000/svg" fill="currentColor" viewBox="0 0 256 256"><path d="M192 50H64a14 14 0 0 0-14 14v128a14 14 0 0 0 14 14h128a14 14 0 0 0 14-14V64a14 14 0 0 0-14-14m2 142a2 2 0 0 1-2 2H64a2 2 0 0 1-2-2V64a2 2 0 0 1 2-2h128a2 2 0 0 1 2 2Zm44-136v144a6 6 0 0 1-12 0V56a6 6 0 0 1 12 0M30 56v144a6 6 0 0 1-12 0V56a6 6 0 0 1 12 0"/></svg>

<svg xmlns="http://www.w3.org/2000/svg" viewBox="0 0 256 256" fill="currentColor"><path d="M192,50H64A14,14,0,0,0,50,64V192a14,14,0,0,0,14,14H192a14,14,0,0,0,14-14V64A14,14,0,0,0,192,50Zm2,142a2,2,0,0,1-2,2H64a2,2,0,0,1-2-2V64a2,2,0,0,1,2-2H192a2,2,0,0,1,2,2ZM238,56V200a6,6,0,0,1-12,0V56a6,6,0,0,1,12,0ZM30,56V200a6,6,0,0,1-12,0V56a6,6,0,0,1,12,0Z"/></svg>
